!!!OTL: 529. Frau Nachtigall.
!!!ARE: Europa, Mitteleuropa, Deutschland
!!!SCT: E0529A
!!!TXL: @@DE
!!!YEM: Copyright 1995, estate of Helmut Schaffrath.
**kern	**text
*ICvox	*
*M3/4	*
*k[b-]	*
*F:	*
=1	=1
!LO:TX:a:t=Jm Singſpiel Sänger und Schneider". Berliner Partitur. 1814.	!
{8.c	Nach-
16c	-ti-
4f	-gall,
4a	ich
=2	=2
8a	hör
8g	dir
8g	ſin-
8f	-gen,
8r}	.
{8c	das
=3	=3
8.f	Herʒ
16a	im
4a	Leib
4cc	möcht
=4	=4
8cc	mir
8b-	ʒerſpringen,
8b-	.
8a	.
4r}	.
=5	=5
{8a	kom-
16ccL	-me
16aJ	.
4f	doch
4cc	und
=6	=6
16b-L	ſag
16ccJ	.
16ddL	mirs
16b-J	.
4g	wohl,
4r}	.
=7	=7
{8c	wie
8e	ich
4g	mich
4b-	ver-
=8	=8
8a	-hal-
16ccL	-ten
16aJ	.
(4.f	ſoll,
8e)}	.
=9	=9
{8.fL	wie
16aJ	.
8.gL	ich
16b-J	.
4a}	mich,
=10	=10
{8.b-	wie
16dd	ich
4cc	mich
4a	ver-
=11	=11
16ccL	-hal-
16b-J	.
16aL	-ten
16gJ	.
(4g^	ſoll.
8f)	.
8r}	.
==	==
!!!AGN: Liebes - Lied
!!!ONB: ESAC (Essen Associative Code) Database: ERK1
!!!AMT: simple triple
!!!AIN: vox
!!!EED: Helmut Schaffrath
!!!EEV: 1.0
!!!GTL: Liebeslieder [Neuere (aus dem 18. bis 19. Jahrh.) - Liebeslust]
!!!URL-scan: https://rosdok.uni-rostock.de/mcrviewer/recordIdentifier/rosdok_ppn745177662/iview2/phys_0358.iview2?x=-128.77276441889308&y=254.599680039566&scale=0.5870222003877485&rotation=0&layout=singlePageLayout
!!!ENC: Anna Maria Matuszewska
!!!EEV: 2024/10/12
*-	*-
